X:138
T: STEHE ICH AM EISENGITTER
N: E0727
O: Europa, Mitteleuropa, Deutschland, Schleswig Holstein; Hannover
R: Liebes - Lied, Leid, Klage
M: 2/4
L: 1/8
K: F
 | A3A | GFEF | GBBz |
B3B | ABcG | A2z2 |
c3A | fedc | Gddz |
c3c | dcBG | F2z2

@@@ Tune index: 4451
